X: 21891
T: Kiss The Maid Behind The Barrel
R: reel
M: 4/4
K: Gmajor
DG G2 AG G2|DG G2 cAFA|DG G2 AGFA|defd cAFA|
DG G2 AG G2|DG G2 BGcG|B3G ABcA|defd cAFA||
dg g2 aggf|dg g2 agfe|df f2 af f2|defd cAFA|
dg g2 ag g2|abag f3g|af (3gfe fde^c|dfeg fdcA||
G2dG BGdG|G2dB cAFA|G3A B3c|defd cAFA|
G2dG BGdG|G2dB cAFA|B3G A3B|defd cAFA||
|:B3G A3G|B3c dedc|B3G AGFA|defd cAFA:|
BDGB ADFA|BDGB dedc|BDGB AGFA|defd cAFA|
BD D2 AD D2|GD D2 dedc|B3G AGFA|defd cAFA||

